X: 4257
T: Bob Herdman's Lost Tomato
R: reel
M: 4/4
K: Gdorian
G,A,B,D GBAG|EFAF CFAF|G,A,B,D GABG|AFGA BGDB,|
G,A,B,D GBAG|F2 AF cFAc|~B3G AGFG|1 AdcA BGDB,:|2 AdcA BGGA||
B2dB FBdB|~B2 dB cAFA|B2dB FBdB|FGAc BGGA|
B2dB FBdB|~B2 dB cAFA|~B3G AGFG|AdcA BGGA|
~B2FB dBFB|~B2 FB ABcA|~B2 FB dBFB|ABcA BGGA|
B2 dB fBdB|Ac{d}cA dcAc|~B3G AGFG|AdcA BGDB,||G,4||

